X: 224
%
U:~=!turn!
T: Haughs of Cromdale
C:
O:Scotland
B:Keith Norman MacDonald : "The Skye collection of the best reels & strathspeys extant" : 1887
Z:Ralph Palmer
R:Strathspey
M:C
L:1/8
K:E aeolian
e | B<ET(E>F) (B>A)F<A | B>ET(E>F) (D>E)F>A | B<E(E>F) TB>A(F>A) | {/^c}d>BA>F ~E2 E ::
F | (D<d)d>e (d/^c/)(B/A/) {/c}d2 | F<AA>B A>F TA2 | (B<e)e>f {/f}(g>f)e>d | (B>d) T(B/A/)(G/F/) TE2 E :|


